X:4215
T:Minuet 4
O:england
R:Minuet
M:3/4
L:1/8
K:EDor
B2 e^d e2 | B2 fe f2 | B2 gf ga | f4 g2 |\
a2 f2 ^d2 | B2 a4 | g2 ag fg | e6 ::\
B2 B4 | cd cB cA | c2 c4 | de dc dB | \
^d2 ^d4 | [1\
e2 fg ag | f2 B2 ^d2 | e6 :| [2\
e2 =d=c BA | G3A F2 | E6 |]


